X:1
T:The Willow Song
M:3/4
L:1/4
K:G
 B| B E F| E E z| z z B/2B/2| d G A| G2 z| z z A| B3/2 E/2G/2-A/2|\
 B B z| z z B| d G A| B G B| A3/2- G/2F/2 E/2| F2 d| ^c/2B/2A/2 G/2F/2 F/2|\
 E E e| ^d/2^c/2B/2 A/2^G/2 F/2| ^G E =G| F3/2 E/2 F| E2 G| G3/2 G/2 A|\
 B B z| d3/2 B/2c/2 A/2| B B z| z z e| d3/2 B/2c/2-A/2| B3/2 A/2 G|\
 F E F| E2||
